src/helpers/heroicons/outline/circle-stack.svg

<svg width="24" height="24" viewBox="0 0 24 24" fill="none" xmlns="http://www.w3.org/2000/svg">
<path d="M20.25 6.375C20.25 8.65317 16.5563 10.5 12 10.5C7.44365 10.5 3.75 8.65317 3.75 6.375M20.25 6.375C20.25 4.09683 16.5563 2.25 12 2.25C7.44365 2.25 3.75 4.09683 3.75 6.375M20.25 6.375V17.625C20.25 19.9032 16.5563 21.75 12 21.75C7.44365 21.75 3.75 19.9032 3.75 17.625V6.375M20.25 6.375V10.125M3.75 6.375V10.125M20.25 10.125V13.875C20.25 16.1532 16.5563 18 12 18C7.44365 18 3.75 16.1532 3.75 13.875V10.125M20.25 10.125C20.25 12.4032 16.5563 14.25 12 14.25C7.44365 14.25 3.75 12.4032 3.75 10.125"  stroke-width="1.5" stroke-linecap="round" stroke-linejoin="round"/>
</svg>

<svg xmlns="http://www.w3.org/2000/svg" fill="none" viewBox="0 0 24 24" stroke-width="1.5" stroke="currentColor" aria-hidden="true" data-slot="icon">
  <path stroke-linecap="round" stroke-linejoin="round" d="M20.25 6.375c0 2.278-3.694 4.125-8.25 4.125S3.75 8.653 3.75 6.375m16.5 0c0-2.278-3.694-4.125-8.25-4.125S3.75 4.097 3.75 6.375m16.5 0v11.25c0 2.278-3.694 4.125-8.25 4.125s-8.25-1.847-8.25-4.125V6.375m16.5 0v3.75m-16.5-3.75v3.75m16.5 0v3.75C20.25 16.153 16.556 18 12 18s-8.25-1.847-8.25-4.125v-3.75m16.5 0c0 2.278-3.694 4.125-8.25 4.125s-8.25-1.847-8.25-4.125"/>
</svg>
